icon/pk/nuclear-plant.svg

<svg viewBox="0 0 48 48" fill="none" xmlns="http://www.w3.org/2000/svg" height="1em" width="1em">
  <path d="M4 44H44" stroke="black" stroke-width="4" stroke-linecap="round" stroke-linejoin="round"/>
  <path d="M12 14H36" stroke="black" stroke-width="4" stroke-linecap="round" stroke-linejoin="round"/>
  <path d="M14 14H24H34L34.8772 21.0175C34.9589 21.6709 35.1049 22.3147 35.3131 22.9394L38.6474 32.9422C38.8817 33.6452 39.0372 34.3721 39.1109 35.1095L40 44H8L8.88905 35.1095C8.96279 34.3721 9.11826 33.6452 9.35259 32.9422L12.6869 22.9394C12.8951 22.3147 13.0411 21.6709 13.1228 21.0175L14 14Z" fill="#2F88FF" stroke="black" stroke-width="4" stroke-linejoin="round"/>
  <path d="M24 8L24.8284 7.17157C25.5786 6.42143 26.596 6 27.6569 6H28.3431C29.404 6 30.4214 5.57857 31.1716 4.82843L32 4" stroke="black" stroke-width="4" stroke-linecap="round" stroke-linejoin="round"/>
  <path d="M17 31C17 32.8728 17.7354 34.5738 18.9333 35.83C19.5891 36.5178 20.3836 37.0722 21.2718 37.4484" stroke="white" stroke-width="4" stroke-linecap="round"/>
  <path d="M31.0004 31C31.0004 32.8728 30.2649 34.5738 29.0671 35.83C28.4112 36.5178 27.6168 37.0722 26.7285 37.4484" stroke="white" stroke-width="4" stroke-linecap="round"/>
  <path d="M18.9336 26.17C20.2085 24.8331 22.0071 24 24.0003 24C25.9935 24 27.7922 24.8331 29.067 26.17" stroke="white" stroke-width="4" stroke-linecap="round"/>
  <circle cx="24" cy="31" r="2" fill="white"/>
</svg>

<svg width="48" height="48" fill="none" xmlns="http://www.w3.org/2000/svg"><path d="M4 44h40M12 14h24" stroke="#000" stroke-width="4" stroke-linecap="round" stroke-linejoin="round"/><path d="M14 14h20l.877 7.017c.082.654.228 1.298.436 1.922l3.334 10.003a10 10 0 0 1 .464 2.167L40 44H8l.889-8.89a10 10 0 0 1 .464-2.168l3.334-10.003c.208-.624.354-1.268.436-1.922L14 14Z" fill="#2F88FF" stroke="#000" stroke-width="4" stroke-linejoin="round"/><path d="m24 8 .828-.828A4 4 0 0 1 27.657 6h.686a4 4 0 0 0 2.829-1.172L32 4" stroke="#000" stroke-width="4" stroke-linecap="round" stroke-linejoin="round"/><path d="M17 31a7.012 7.012 0 0 0 4.272 6.448M31 31a7.013 7.013 0 0 1-4.272 6.448M18.934 26.17A6.98 6.98 0 0 1 24 24a6.98 6.98 0 0 1 5.067 2.17" stroke="#fff" stroke-width="4" stroke-linecap="round"/><circle cx="24" cy="31" r="2" fill="#fff"/></svg>
